Simply-Purple-Circles/scalable/emotes/face-yawn.svg

<svg xmlns="http://www.w3.org/2000/svg" xmlns:xlink="http://www.w3.org/1999/xlink" width="48" height="48" viewBox="0 0 12.7 12.7"><defs><radialGradient xlink:href="#a" id="b" cx="7.52" cy="8.19" fx="7.52" fy="8.19" r="1.15" gradientTransform="matrix(.03838 1.61784 2.95912 -.0702 -18.2 -1.9)" gradientUnits="userSpaceOnUse"/><linearGradient id="a"><stop offset="0" stop-color="#963996" stop-opacity="0"/><stop offset="1" stop-color="#963996"/></linearGradient></defs><path d="M6.32.05a6.29 6.29 0 0 0-6.3 6.3 6.29 6.29 0 0 0 6.3 6.28 6.29 6.29 0 0 0 6.29-6.3A6.29 6.29 0 0 0 6.3.06l.02-.01zM6.3.98a5.4 5.4 0 0 1 5.4 5.4 5.4 5.4 0 0 1-5.4 5.42A5.4 5.4 0 0 1 .9 6.4 5.4 5.4 0 0 1 6.3.98zM4.22 2.82c-.32-.02-.7.22-1.16.9-.08.13-.01.31.15.24.79-.95 1.22-.8 1.9-.02.15.05.2-.18.15-.22-.32-.44-.64-.88-1.04-.9zm4.37 0c-.31-.02-.68.22-1.15.9-.08.13-.02.31.15.24.78-.95 1.21-.8 1.9-.02.14.05.19-.18.15-.22-.32-.44-.64-.88-1.05-.9zM6.3 5.39a2.98 2.2 0 0 0-2.98 2.2 2.98 2.2 0 0 0 2.98 2.2 2.98 2.2 0 0 0 2.98-2.2 2.98 2.2 0 0 0-2.98-2.2zm0 .29a2.6 1.92 0 0 1 2.6 1.9A2.6 1.92 0 0 1 6.3 9.5a2.6 1.92 0 0 1-2.6-1.92 2.6 1.92 0 0 1 2.6-1.9zm-.85 4.4c-.03.1-.23.1 0 .32a1.84 1.19 0 0 0 1.24.12 1.8 1.17 0 0 0 .46-.12c.25-.1.16-.22 0-.33a1.55 1 0 0 1-.3.12 1.42.92 0 0 1-1.4-.12z" fill="#963996"/><path style="marker:none" d="M3.5 7.58a2.82 2.07 0 0 0 2.8 2.09A2.82 2.07 0 0 0 9.12 7.6 2.82 2.07 0 0 0 6.3 5.53a2.82 2.07 0 0 0-2.8 2.05z" overflow="visible" fill="url(#b)"/></svg>

<?xml version="1.0" encoding="UTF-8" standalone="no"?>
<svg
   xmlns:dc="http://purl.org/dc/elements/1.1/"
   xmlns:cc="http://creativecommons.org/ns#"
   xmlns:rdf="http://www.w3.org/1999/02/22-rdf-syntax-ns#"
   xmlns:svg="http://www.w3.org/2000/svg"
   xmlns="http://www.w3.org/2000/svg"
   xmlns:xlink="http://www.w3.org/1999/xlink"
   xmlns:sodipodi="http://sodipodi.sourceforge.net/DTD/sodipodi-0.dtd"
   xmlns:inkscape="http://www.inkscape.org/namespaces/inkscape"
   width="48"
   height="48"
   viewBox="0 0 12.7 12.7"
   version="1.1"
   id="svg14"
   sodipodi:docname="face-yawn.svg"
   inkscape:version="0.92.4 (5da689c313, 2019-01-14)">
  <metadata
     id="metadata18">
    <rdf:RDF>
      <cc:Work
         rdf:about="">
        <dc:format>image/svg+xml</dc:format>
        <dc:type
           rdf:resource="http://purl.org/dc/dcmitype/StillImage" />
        <dc:title></dc:title>
      </cc:Work>
    </rdf:RDF>
  </metadata>
  <sodipodi:namedview
     pagecolor="#ffffff"
     bordercolor="#666666"
     borderopacity="1"
     objecttolerance="10"
     gridtolerance="10"
     guidetolerance="10"
     inkscape:pageopacity="0"
     inkscape:pageshadow="2"
     inkscape:window-width="1087"
     inkscape:window-height="480"
     id="namedview16"
     showgrid="false"
     inkscape:zoom="4.9166667"
     inkscape:cx="2.1355932"
     inkscape:cy="24"
     inkscape:window-x="0"
     inkscape:window-y="25"
     inkscape:window-maximized="0"
     inkscape:current-layer="svg14" />
  <defs
     id="defs8">
    <radialGradient
       xlink:href="#a"
       id="b"
       cx="7.52"
       cy="8.19"
       fx="7.52"
       fy="8.19"
       r="1.15"
       gradientTransform="matrix(0.03838,1.61784,2.95912,-0.0702,-18.2,-1.9)"
       gradientUnits="userSpaceOnUse" />
    <linearGradient
       id="a">
      <stop
         offset="0"
         stop-color="#963996"
         stop-opacity="0"
         id="stop3" />
      <stop
         offset="1"
         stop-color="#963996"
         id="stop5" />
    </linearGradient>
  </defs>
  <path
     d="m 6.32,0.05 a 6.29,6.29 0 0 0 -6.3,6.3 6.29,6.29 0 0 0 6.3,6.28 6.29,6.29 0 0 0 6.29,-6.3 A 6.29,6.29 0 0 0 6.3,0.06 Z M 6.3,0.98 A 5.4,5.4 0 0 1 11.7,6.38 5.4,5.4 0 0 1 6.3,11.8 5.4,5.4 0 0 1 0.9,6.4 5.4,5.4 0 0 1 6.3,0.98 Z M 4.22,2.82 C 3.9,2.8 3.52,3.04 3.06,3.72 2.98,3.85 3.05,4.03 3.21,3.96 4,3.01 4.43,3.16 5.11,3.94 5.26,3.99 5.31,3.76 5.26,3.72 4.94,3.28 4.62,2.84 4.22,2.82 Z m 4.37,0 C 8.28,2.8 7.91,3.04 7.44,3.72 7.36,3.85 7.42,4.03 7.59,3.96 8.37,3.01 8.8,3.16 9.49,3.94 9.63,3.99 9.68,3.76 9.64,3.72 9.32,3.28 9,2.84 8.59,2.82 Z M 6.3,5.39 A 2.98,2.2 0 0 0 3.32,7.59 2.98,2.2 0 0 0 6.3,9.79 2.98,2.2 0 0 0 9.28,7.59 2.98,2.2 0 0 0 6.3,5.39 Z m 0,0.29 A 2.6,1.92 0 0 1 8.9,7.58 2.6,1.92 0 0 1 6.3,9.5 2.6,1.92 0 0 1 3.7,7.58 2.6,1.92 0 0 1 6.3,5.68 Z m -0.85,4.4 c -0.03,0.1 -0.23,0.1 0,0.32 a 1.84,1.19 0 0 0 1.24,0.12 1.8,1.17 0 0 0 0.46,-0.12 c 0.25,-0.1 0.16,-0.22 0,-0.33 a 1.55,1 0 0 1 -0.3,0.12 1.42,0.92 0 0 1 -1.4,-0.12 z"
     id="path10"
     inkscape:connector-curvature="0"
     style="fill:#963996" />
  <path
     style="overflow:visible;fill:url(#b);marker:none"
     d="M 3.5,7.58 A 2.82,2.07 0 0 0 6.3,9.67 2.82,2.07 0 0 0 9.12,7.6 2.82,2.07 0 0 0 6.3,5.53 2.82,2.07 0 0 0 3.5,7.58 Z"
     overflow="visible"
     id="path12"
     inkscape:connector-curvature="0" />
</svg>
